packages/web-icons/svgs/document.svg

<svg viewBox="0 0 40 49" xmlns="http://www.w3.org/2000/svg" class="ridi_icon"><path d="M37.4.9H2.6C1.4.9.5 1.9.5 3v43.8c0 1.2 1 2.1 2.1 2.1h22c.6 0 1.1-.2 1.5-.6l12.8-12.8c.4-.4.6-.9.6-1.5V3c0-1-.9-2.1-2.1-2.1zM25.7 42.8v-7.7h7.7l-7.7 7.7zm9.6-9.8H24.6c-.6 0-1.1.5-1.1 1.1v10.6H4.7V5.2h30.6V33zM9.8 12.3h12.5c.6 0 1.1-.5 1.1-1.1 0-.6-.5-1.1-1.1-1.1H9.8c-.6 0-1.1.5-1.1 1.1 0 .6.5 1.1 1.1 1.1zm0 5.1h20.8c.6 0 1.1-.5 1.1-1.1 0-.6-.5-1.1-1.1-1.1H9.8c-.6 0-1.1.5-1.1 1.1 0 .6.5 1.1 1.1 1.1zm0 5.2h20.8c.6 0 1.1-.5 1.1-1.1 0-.6-.5-1.1-1.1-1.1H9.8c-.6 0-1.1.5-1.1 1.1 0 .6.5 1.1 1.1 1.1zm0 5.1h8.7c.6 0 1.1-.5 1.1-1.1 0-.6-.5-1.1-1.1-1.1H9.8c-.6 0-1.1.5-1.1 1.1 0 .6.5 1.1 1.1 1.1z"/></svg>

<?xml version="1.0" encoding="UTF-8"?>
<svg width="40px" height="49px" viewBox="0 0 40 49" version="1.1" xmlns="http://www.w3.org/2000/svg">
  <!-- Generator: Sketch 41.2 (35397) - http://www.bohemiancoding.com/sketch -->
  <title>document</title>
  <desc>Created with Sketch.</desc>
  <defs></defs>
  <g id="Page-1" stroke="none" stroke-width="1" fill="none" fill-rule="evenodd">
    <g id="document" fill="#444444">
      <g id="레이어_1">
        <path d="M37.4,0.9 L2.6,0.9 C1.4,0.9 0.5,1.9 0.5,3 L0.5,46.8 C0.5,48 1.5,48.9 2.6,48.9 L24.6,48.9 C25.2,48.9 25.7,48.7 26.1,48.3 L38.9,35.5 C39.3,35.1 39.5,34.6 39.5,34 L39.5,3 C39.5,2 38.6,0.9 37.4,0.9 Z M25.7,42.8 L25.7,35.1 L33.4,35.1 L25.7,42.8 Z M35.3,33 L24.6,33 C24,33 23.5,33.5 23.5,34.1 L23.5,44.7 L4.7,44.7 L4.7,5.2 L35.3,5.2 L35.3,33 L35.3,33 Z M9.8,12.3 L22.3,12.3 C22.9,12.3 23.4,11.8 23.4,11.2 C23.4,10.6 22.9,10.1 22.3,10.1 L9.8,10.1 C9.2,10.1 8.7,10.6 8.7,11.2 C8.7,11.8 9.2,12.3 9.8,12.3 Z M9.8,17.4 L30.6,17.4 C31.2,17.4 31.7,16.9 31.7,16.3 C31.7,15.7 31.2,15.2 30.6,15.2 L9.8,15.2 C9.2,15.2 8.7,15.7 8.7,16.3 C8.7,16.9 9.2,17.4 9.8,17.4 Z M9.8,22.6 L30.6,22.6 C31.2,22.6 31.7,22.1 31.7,21.5 C31.7,20.9 31.2,20.4 30.6,20.4 L9.8,20.4 C9.2,20.4 8.7,20.9 8.7,21.5 C8.7,22.1 9.2,22.6 9.8,22.6 Z M9.8,27.7 L18.5,27.7 C19.1,27.7 19.6,27.2 19.6,26.6 C19.6,26 19.1,25.5 18.5,25.5 L9.8,25.5 C9.2,25.5 8.7,26 8.7,26.6 C8.7,27.2 9.2,27.7 9.8,27.7 Z" id="Shape"></path>
      </g>
    </g>
  </g>
</svg>
